X:627
T:Marigold
T:Auprez de ma blonde
C:Adapted by Colin Hume
N:For the Scottish dance by James Cosh, who specified the tune "Auprez de ma blonde".
N:C-part added to make it fit the dance.  Better known in England as "I want to be near you".
M:6/8
R:Jig
L:1/8
S:Colin Hume's website,  colinhume.com  - chords can also be printed below the stave.
Q:3/8=120
K:G
P:A
G2A | "G"B3 "D7"B2A | "G"G2G G2B | "G"d2d "C"e2e | "G"d3- "D7"d2c | "G"B2B "D7"B2A | "G"G2G G2B | "G"d2d "C"e2e | "D"d6 |
P:B
|: "E7"e2e e2B | "Am"c3c3 | "D7"d2d d2A | "G"B3 "D7"A3 | "G"G3 "D7"ABc | "G"B3 d3 |
"Am"A2c "D7"B2A | "G"G2E "D7"D3 | "G"G3 "D7"ABc | "G"B3 "E7"d3 | "Am"A2c "D7"B2A |1 "G"G3 Bcd :|2 "G"G3 g2f |
P:C
"C"e2f gfe | "G"d2c "Em"B3 | "Am"c2d edc | "D7"B3 A3 | "Em"G3 "D7"ABc | "G"B3 "E7"d3 | "Am"A2c "D7"B2A | "G"G6 |]

